32x32/apps/goobox.svg

<svg xmlns="http://www.w3.org/2000/svg" width="32" height="32" version="1">
 <path fill="#848484" d="m16 8.5a7.5 7.5 0 0 0 -7.5 7.5 7.5 7.5 0 0 0 7.5 7.5 7.5 7.5 0 0 0 7.5 -7.5 7.5 7.5 0 0 0 -7.5 -7.5zm0 4.5c1.6569 0 3 1.3431 3 3s-1.3431 3-3 3-3-1.3431-3-3 1.3431-3 3-3z"/>
 <path fill="#f4f4f7" d="m16 1c-8.31 0-15 6.69-15 15s6.69 15 15 15 15-6.69 15-15-6.69-15-15-15zm0 9a6 6 0 0 1 6 6 6 6 0 0 1 -6 6 6 6 0 0 1 -6 -6 6 6 0 0 1 6 -6z"/>
 <path fill="#fff" opacity=".4" d="m16 1c8.3024 0 14.986 6.69 14.986 15 0 0.1259-0.006 0.24986-0.0087 0.375-0.198-8.1346-6.8-14.625-14.977-14.625-8.176 0-14.779 6.4904-14.978 14.625-0.0019-0.125-0.0077-0.249-0.0077-0.375 0-8.31 6.6839-15 14.986-15zm2.959 15.375c0.01566 0.12413 0.03806 0.24662 0.03806 0.375 0 1.6569-1.3419 3-2.9973 3-1.6553 0-2.9973-1.3431-2.9973-3 0-0.12838 0.0224-0.25087 0.03806-0.375 0.18614 1.4779 1.4321 2.625 2.9592 2.625s2.7731-1.1471 2.9592-2.625z"/>
 <path opacity=".2" d="m1.0254 16.5c-0.0055 0.168-0.0254 0.331-0.0254 0.5 0 8.31 6.69 15 15 15s15-6.69 15-15c0-0.169-0.02-0.332-0.025-0.5-0.265 8.074-6.834 14.5-14.975 14.5-8.1411 0-14.71-6.426-14.975-14.5z"/>
 <circle fill="#2eac43" cx="24" cy="23" r="8"/>
 <circle fill="#fff" cx="23.5" cy="26.5" r="2.5"/>
 <rect fill="#fff" width="2" height="8" x="24" y="19" rx="1" ry="1"/>
 <path opacity=".2" d="m31.979 23.424a8 8 0 0 1 -7.979 7.576 8 8 0 0 1 -7.979 -7.424 8 8 0 0 0 -0.021 0.424 8 8 0 0 0 8 8 8 8 0 0 0 8 -8 8 8 0 0 0 -0.02148 -0.57617z"/>
</svg>

<svg xmlns="http://www.w3.org/2000/svg" width="32" height="32" version="1"><path fill="#848484" d="M16 8.5A7.5 7.5 0 0 0 8.5 16a7.5 7.5 0 0 0 7.5 7.5 7.5 7.5 0 0 0 7.5-7.5A7.5 7.5 0 0 0 16 8.5zm0 4.5a3 3 0 1 1 0 6 3 3 0 0 1 0-6z"/><path fill="#f4f4f7" d="M16 1C7.69 1 1 7.69 1 16s6.69 15 15 15 15-6.69 15-15S24.31 1 16 1zm0 9a6 6 0 0 1 6 6 6 6 0 0 1-6 6 6 6 0 0 1-6-6 6 6 0 0 1 6-6z"/><path fill="#fff" opacity=".4" d="M16 1a14.96 14.96 0 0 1 14.986 15c0 .126-.006.25-.009.375C30.78 8.24 24.177 1.75 16 1.75c-8.176 0-14.779 6.49-14.978 14.625-.002-.125-.007-.249-.007-.375C1.015 7.69 7.699 1 16 1zm2.959 15.375c.016.124.038.247.038.375 0 1.657-1.342 3-2.997 3a2.999 2.999 0 0 1-2.998-3c0-.128.023-.25.039-.375C13.227 17.853 14.473 19 16 19s2.773-1.147 2.959-2.625z"/><path opacity=".2" d="M1.025 16.5c-.005.168-.025.331-.025.5 0 8.31 6.69 15 15 15s15-6.69 15-15c0-.169-.02-.332-.025-.5C30.71 24.574 24.141 31 16 31S1.29 24.574 1.025 16.5z"/><circle fill="#2eac43" cx="24" cy="23" r="8"/><circle fill="#fff" cx="23.5" cy="26.5" r="2.5"/><rect fill="#fff" width="2" height="8" x="24" y="19" rx="1" ry="1"/><path opacity=".2" d="M31.979 23.424A8 8 0 0 1 24 31a8 8 0 0 1-7.979-7.424A8 8 0 0 0 16 24a8 8 0 0 0 8 8 8 8 0 0 0 8-8 8 8 0 0 0-.021-.576z"/></svg>
